static/img/mobile/spinners-indeterminate.svg

<svg fill="none" height="122" viewBox="0 0 960 122" width="960" xmlns="http://www.w3.org/2000/svg" xmlns:xlink="http://www.w3.org/1999/xlink"><clipPath id="a"><path d="m0 0h960v122h-960z"/></clipPath><g clip-path="url(#a)"><path d="m0 0h960v122h-960z" fill="#f1f1f6"/><path clip-rule="evenodd" d="m459 61c0 11.598 9.402 21 21 21s21-9.402 21-21h-3.818c0 9.4893-7.693 17.1818-17.182 17.1818s-17.182-7.6925-17.182-17.1818 7.693-17.1818 17.182-17.1818v-3.8182c-11.598 0-21 9.402-21 21z" fill="#0063a3" fill-rule="evenodd"/></g></svg>

<svg width="960" height="122" viewBox="0 0 960 122" fill="none" xmlns="http://www.w3.org/2000/svg">
<g clip-path="url(#clip0_314_61826)">
<rect width="960" height="122" fill="#F1F1F6"/>
<path fill-rule="evenodd" clip-rule="evenodd" d="M459 61C459 72.598 468.402 82 480 82C491.598 82 501 72.598 501 61L497.182 61C497.182 70.4893 489.489 78.1818 480 78.1818C470.511 78.1818 462.818 70.4893 462.818 61C462.818 51.5107 470.511 43.8182 480 43.8182L480 40C468.402 40 459 49.402 459 61Z" fill="#0063A3"/>
</g>
<defs>
<clipPath id="clip0_314_61826">
<rect width="960" height="122" fill="white"/>
</clipPath>
</defs>
</svg>
